X:123
T:Tripping to the Well
B:Terry "Cuz" Teahan "Sliabh Luachra on Parade" 1980
Z:Patrick Cavanagh
M:2/4
L:1/8
R:Polka
K:G
D | G>A BG | EG ED | G>A Bd | BA A2 | 
G>A BG | EG ED | dB/G/ D/E/G/A/ | BG [1]G :|[2] G2 | 
|: d2 dB | c/d/f/g/ d/B/G | gf dB | d/e/d BG | 
c2 cB | c/d/e/d/ BG | gf dB | d/e/d BG :|| 

